X: 32905
T: Potato On The Door, The
R: reel
M: 4/4
K: Amajor
|:a2> e2 faec|ecBc BAce|a2> e2 fafe|cBAF ECB,C|A,2 CE FA A/B/A|
FECE Ac c/d/c|1 a2> e2 faec|ecBc Aefg:|2 efec BAFE|CEB,E A,2> e2||
f2 ec e2 ce|f2 ec ecBc|dff2 e2> A2|FAFC B,2>E2|
A,2CE FA A/B/A|FECE Ac c2|a2> e2 faec|ecBc A2>e2|
f2 ec e2 ce|f2 ec ecBc|dff2 e2> A2|FAFC B,2>e2|
fefg abaf|ec c2 EAce|dcde f/g/a fe|ceBe Aege||

